!!!COM: Frank Martin
!!!OTL: [T553_Mai-w19p1m1-9]
**kern	**kern	**dynam	**kern	**dynam
*grp:A	*grp:B	*grp:B	*grp:A	*grp:A
*part3	*part2	*part2	*part1	*part1
*staff3	*staff2	*staff2	*staff1	*staff1
*I"Pedals	*I"Man. Organ	*I"Man. Organ	*I"Flute	*I"Flute
*I'Ped.	*I'Org.	*	*I'Fl.	*
!!pagebreak:original
*clefF4	*clefG2	*	*clefG2	*
*k[]	*k[]	*	*k[]	*
*C:	*C:	*	*C:	*
*M4/4	*M4/4	*	*M4/4	*
*	*^	*	*	*
!	!LO:TX:a:t=8' or 16' très fins	!	!	!	!
4r	4ryy	4ryy	4ryy	4r	.
=1	=1	=1	=1	=1	=1
!LO:TX:a:t=8'.16'.	!	!	!	!LO:TX:a:i:t=dolce teneramente	!
1r	4ryy	4ryy	.	[1d	.
.	4ryy	4ryy	.	.	.
.	4ryy	4ryy	.	.	.
.	4ryy	4ryy	.	.	.
=2	=2	=2	=2	=2	=2
2.B-X	4ryy	4ryy	.	2d]	.
.	4ryy	4ryy	.	.	.
.	4ryy	4ryy	.	(4.g	.
4r	4ryy	4ryy	.	.	.
.	.	.	.	8a)	.
=3	=3	=3	=3	=3	=3
2.G	4ryy	4ryy	.	(8b-X	.
.	.	.	.	4a)	.
.	4ryy	4ryy	.	.	.
.	.	.	.	([8b-N	.
.	4ryy	4ryy	.	4b-]	.
4r	4ryy	4ryy	.	4a)	.
=4	=4	=4	=4	=4	=4
2.F	4ryy	4ryy	.	(8bn	.
.	.	.	.	[4.dd	.
.	4ryy	4ryy	.	.	.
.	4ryy	4ryy	.	4.dd])	.
4r	4ryy	4ryy	.	.	.
.	.	.	.	8gg~	.
=5	=5	=5	=5	=5	=5
[1D	4ryy	4ryy	.	([1bb-X	<
.	4ryy	4ryy	.	.	.
.	4ryy	4ryy	.	.	.
.	4ryy	4ryy	.	.	.
!!linebreak:original
=6	=6	=6	=6	=6	=6
2.D]	4ryy	4ryy	.	4.bb-]	.
.	4ryy	4ryy	.	.	.
.	.	.	.	8aa)	[
.	4ryy	4ryy	.	(8ff#X	.
.	.	.	.	4gg#X	.
4r	4ryy	4ryy	.	.	.
.	.	.	.	[8ff#	.
=7	=7	=7	=7	=7	=7
2.GG	4ryy	4ryy	.	8ff#])	.
.	.	.	.	(4ee-X	.
.	4ryy	4ryy	.	.	.
.	.	.	.	[8ffn)	.
.	4ryy	4ryy	.	8ff]	.
.	.	.	.	(4gg-X	.
4r	4ryy	4ryy	.	.	.
.	.	.	.	[8ff	.
=8	=8	=8	=8	=8	=8
2.GG	4ryy	4ryy	.	8ffL])	.
.	.	.	.	(8een	.
.	4ryy	4ryy	.	8ff	.
.	.	.	.	[8ddJ)	.
.	4ryy	4ryy	.	8ddL]	.
.	.	.	.	[8cc#X~J	.
4r	4ryy	4ryy	.	8.cc#L]	.
.	.	.	.	[16cc#~Jk	.
=9	=9	=9	=9	=9	=9
2.GG	4ryy	4ryy	.	8cc#L]	.
.	.	.	.	(8cc#X~	.
.	4ryy	4ryy	.	8dd~	.
.	.	.	.	8ee~J)	.
.	4ryy	4ryy	.	4ffn~	.
4r	4ryy	4ryy	.	8.ccn~L	.
.	.	.	.	16cc'Jk	.
*	*v	*v	*	*	*
=	=	=	=	=
*-	*-	*-	*-	*-
!!!system-decoration: s1[(s2,s3)]
!!!RDF**kern: N = hairpin accent
